Numix/24/actions/view-right-new.svg

<svg xmlns="http://www.w3.org/2000/svg" viewBox="0 0 24 24">
 <g transform="translate(2,1)">
  <path d="m 3 1 c -3 0 -3 2 -3 2.965 l 0 17.04 20 0 0 -17 c 0 -1 0 -3 -3 -3" style="fill:#fff"/>
  <path d="m 3 1 c -3 0 -3 2 -3 2.965 l 0 17.04 20 0 0 -17 c 0 -1 0 -3 -3 -3 m -14 1 14 0 c 2 0 2.062 1 2 2 l 0 16 -18 0 0 -16 c 0 -1 0 -2 2 -2" style="fill:#888"/>
  <path d="m 1 8 6 0 0 12 -6 0" style="fill-opacity:0.102"/>
 </g>
 <g transform="translate(2,1)" style="fill:#888;fill-opacity:0.902">
  <path d="m 1 7 0 1 18 0 0 -1"/>
  <path d="m 7 8 0 12 1 0 0 -12"/>
 </g>
 <path d="m 24 15 -4 0 0 -4.375 -4 0.033 0 4.342 -4 0 0 4 4 0 0 4 4 0 0 -4 4 0 z" style="fill:#859900"/>
</svg>

<?xml version="1.0" encoding="UTF-8" standalone="no"?>
<svg
   xmlns:dc="http://purl.org/dc/elements/1.1/"
   xmlns:cc="http://creativecommons.org/ns#"
   xmlns:rdf="http://www.w3.org/1999/02/22-rdf-syntax-ns#"
   xmlns:svg="http://www.w3.org/2000/svg"
   xmlns="http://www.w3.org/2000/svg"
   xmlns:sodipodi="http://sodipodi.sourceforge.net/DTD/sodipodi-0.dtd"
   xmlns:inkscape="http://www.inkscape.org/namespaces/inkscape"
   width="24"
   height="24"
   viewBox="0 0 24 24"
   id="svg2"
   version="1.1"
   inkscape:version="0.91 r13725"
   sodipodi:docname="view-right-new.svg">
  <metadata
     id="metadata24">
    <rdf:RDF>
      <cc:Work
         rdf:about="">
        <dc:format>image/svg+xml</dc:format>
        <dc:type
           rdf:resource="http://purl.org/dc/dcmitype/StillImage" />
      </cc:Work>
    </rdf:RDF>
  </metadata>
  <defs
     id="defs22" />
  <sodipodi:namedview
     pagecolor="#ffffff"
     bordercolor="#666666"
     borderopacity="1"
     objecttolerance="10"
     gridtolerance="10"
     guidetolerance="10"
     inkscape:pageopacity="0"
     inkscape:pageshadow="2"
     inkscape:window-width="1366"
     inkscape:window-height="704"
     id="namedview20"
     showgrid="true"
     inkscape:zoom="12.737675"
     inkscape:cx="2.7021792"
     inkscape:cy="12"
     inkscape:window-x="0"
     inkscape:window-y="27"
     inkscape:window-maximized="1"
     inkscape:current-layer="svg2">
    <inkscape:grid
       type="xygrid"
       id="grid4152" />
  </sodipodi:namedview>
  <g
     transform="translate(2,1)"
     id="g4">
    <path
       style="fill:#ffffff"
       d="M 3,1 C 0,1 0,3 0,3.964844 L 0,21 20,21 20,4 C 20,2.9998871 20,1 17,1 Z"
       id="path6"
       inkscape:connector-curvature="0" />
    <path
       style="fill:#888888"
       d="M 3,1 C 0,1 0,3 0,3.964844 L 0,21 20,21 20,4 C 20,2.9998871 20,1 17,1 Z m 0,1 14,0 c 2,0 2.06238,1.0019139 2,2 L 19,20 1,20 1,4 C 1,2.9996982 1,2 3,2 Z"
       id="path8"
       inkscape:connector-curvature="0" />
    <path
       style="fill-opacity:0.10199998"
       d="M 1,8 7,8 7,20 1,20 Z"
       id="path10"
       inkscape:connector-curvature="0" />
  </g>
  <g
     style="fill:#888888;fill-opacity:0.90200004"
     transform="translate(2,1)"
     id="g12">
    <path
       d="M 1,7 1,8 19,8 19,7 Z"
       id="path14"
       inkscape:connector-curvature="0" />
    <path
       d="M 7,8 7,20 8,20 8,8 Z"
       id="path16"
       inkscape:connector-curvature="0" />
  </g>
  <path
     style="fill:#859900"
     d="m 24,15 -4,0 0,-4.375 -4,0.03296 0,4.34204 -4,0 0,4 4,0 0,4 4,0 0,-4 4,0 z"
     id="path18"
     inkscape:connector-curvature="0" />
</svg>
